dist/img/icons/Header/intro-card/mingcute_telegram-fill.svg

<svg width="22" height="22" viewBox="0 0 22 22" fill="none" xmlns="http://www.w3.org/2000/svg">
<g clip-path="url(#clip0_434_764)">
<path d="M11 0C4.92525 0 0 4.92525 0 11C0 17.0748 4.92525 22 11 22C17.0748 22 22 17.0748 22 11C22 4.92525 17.0748 0 11 0ZM16.4028 7.53592L14.597 16.0426C14.4641 16.6457 14.1048 16.7924 13.6033 16.5083L10.8533 14.4824L9.52783 15.7603C9.46289 15.8443 9.37955 15.9124 9.28421 15.9593C9.18888 16.0062 9.08407 16.0306 8.97783 16.0307H8.97325L9.1685 13.2312L14.2652 8.62767C14.4852 8.43242 14.2157 8.3215 13.9233 8.51675L7.62667 12.4822L4.91333 11.6353C4.32667 11.4492 4.31017 11.0486 5.03708 10.7608L15.6393 6.67425C16.1324 6.49458 16.5614 6.79158 16.4019 7.53683L16.4028 7.53592Z" fill="white"/>
</g>
<defs>
<clipPath id="clip0_434_764">
<rect width="22" height="22" fill="white"/>
</clipPath>
</defs>
</svg>

<svg width="22" height="22" fill="none" xmlns="http://www.w3.org/2000/svg"><g clip-path="url(#a)"><path d="M11 0C4.925 0 0 4.925 0 11s4.925 11 11 11 11-4.925 11-11S17.075 0 11 0Zm5.403 7.536-1.806 8.507c-.133.603-.492.75-.994.465l-2.75-2.026-1.325 1.278a.697.697 0 0 1-.55.27h-.005l.195-2.799 5.097-4.603c.22-.196-.05-.306-.342-.111l-6.296 3.965-2.714-.847c-.586-.186-.603-.586.124-.874L15.64 6.674c.493-.18.922.118.763.863v-.001Z" fill="#fff"/></g><defs><clipPath id="a"><path fill="#fff" d="M0 0h22v22H0z"/></clipPath></defs></svg>
